src/assets/quote.svg

<svg width="71" height="60" viewBox="0 0 71 60" fill="none" xmlns="http://www.w3.org/2000/svg">
<path d="M31.7405 45.479C31.7405 41.7585 30.7681 38.6384 28.8233 36.1059C27.445 34.364 25.5763 33.2183 23.2129 32.6729C20.8876 32.1317 18.6891 32.0936 16.702 32.5545C16.0255 28.538 17.1248 24.2848 19.9152 19.7779C22.7056 15.2752 26.3204 11.8845 30.73 9.61837L24.0458 0C20.6635 1.67423 17.4503 3.79661 14.4908 6.36292C11.4891 8.92923 8.82551 11.8803 6.45791 15.216C4.09031 18.5518 2.31461 22.3188 1.17309 26.589C0.0315715 30.8591 -0.285517 35.2138 0.259876 39.6953C0.970156 45.6143 2.88115 50.3495 5.99285 53.8586C9.10032 57.4143 12.9773 59.19 17.611 59.19C21.6909 59.19 25.0774 57.9639 27.7578 55.4779C30.4129 53.0427 31.732 49.7069 31.732 45.4663L31.7405 45.479ZM70.3154 45.479C70.3154 41.7585 69.343 38.6384 67.3982 36.1059C66.0199 34.3302 64.1428 33.1802 61.7878 32.6517C59.4202 32.1275 57.2514 32.1021 55.277 32.5587C54.6005 28.5845 55.6575 24.3144 58.4563 19.7906C61.2467 15.3091 64.853 11.9268 69.2627 9.64374L62.5954 0C59.2131 1.67423 56.021 3.79661 53.0404 6.36292C50.0113 8.96726 47.3211 11.9416 45.0329 15.216C42.6822 18.5561 40.9318 22.3188 39.7903 26.589C38.6353 30.8566 38.3237 35.3084 38.8729 39.6953C39.5747 45.6143 41.4772 50.3495 44.5805 53.8586C47.6795 57.3847 51.5438 59.1519 56.1775 59.1519C60.2658 59.1519 63.6523 57.9258 66.3328 55.4441C68.9837 53.0088 70.3154 49.6731 70.3154 45.4325V45.479Z" fill="#FFDC60"/>
</svg>

<svg width="71" height="60" fill="none" xmlns="http://www.w3.org/2000/svg"><path d="M31.74 45.479c0-3.72-.972-6.84-2.917-9.373-1.378-1.742-3.247-2.888-5.61-3.433-2.325-.541-4.524-.58-6.511-.119-.677-4.016.423-8.27 3.213-12.776 2.79-4.503 6.405-7.893 10.815-10.16L24.046 0a45.148 45.148 0 0 0-9.555 6.363c-3.002 2.566-5.665 5.517-8.033 8.853-2.368 3.336-4.143 7.103-5.285 11.373A34.212 34.212 0 0 0 .26 39.695C.97 45.615 2.88 50.35 5.993 53.86 9.1 57.414 12.977 59.19 17.61 59.19c4.08 0 7.466-1.226 10.147-3.712 2.655-2.435 3.974-5.771 3.974-10.012l.009.013Zm38.575 0c0-3.72-.972-6.84-2.917-9.373-1.378-1.776-3.255-2.926-5.61-3.454-2.368-.525-4.537-.55-6.511-.093-.677-3.974.38-8.245 3.18-12.768 2.79-4.482 6.396-7.864 10.806-10.147L62.595 0c-3.382 1.674-6.574 3.797-9.555 6.363a47.736 47.736 0 0 0-8.007 8.853c-2.35 3.34-4.101 7.103-5.243 11.373a34 34 0 0 0-.917 13.106c.702 5.92 2.604 10.654 5.708 14.164 3.098 3.526 6.963 5.293 11.596 5.293 4.089 0 7.475-1.226 10.156-3.708 2.65-2.435 3.982-5.77 3.982-10.012v.047Z" fill="#FFDC60"/></svg>
